X:1
T:John Stinson Number 2
C:
M:4/4    %(3/4, 4/4, 6/8)
L:1/8    %(1/8, 1/4)
%%continueall 1
%%partsbox 1
%%writefields N 1
K:D    %(D, C)
P:A
|:"D"D2 F2 E2 F2|D2 F2 E2 F2|D2 F2 E2 F2|"G"G2 "D"F2 "A"E4
|"D"D2 F2 E2 F2|D2 F2 E2 F2|"G"G4 "D"F4|"A"EF E2 "D"D4:|
P:B
|:"D"A2 AA A2 AA|ABAG F2 D2|"F#m"A2 AA A2 AA|ABAG F2 D2
|"D"A2 AA A2 AA|ABAG F2 D2|"G"G4 "D"F4|"A"EF E2 "D"D4:||